dist/img/food.svg

<svg width="40" height="40" viewBox="0 0 40 40" fill="currentColor" xmlns="http://www.w3.org/2000/svg">
<path d="M38.8281 18.8281H1.17188C0.524687 18.8281 0 19.3528 0 20C0 26.1525 3.735 31.697 9.375 34.0491V36.4063C9.375 37.0534 9.89969 37.5781 10.5469 37.5781H29.4531C30.1003 37.5781 30.625 37.0534 30.625 36.4063V34.0491C36.2928 31.6854 40 26.1237 40 20C40 19.3528 39.4753 18.8281 38.8281 18.8281ZM37.6026 21.1719C37.5291 21.9727 37.3799 22.7565 37.1631 23.5156H2.83687C2.62008 22.7565 2.47094 21.9727 2.39742 21.1719H37.6026ZM29.062 32.1404C28.5941 32.3061 28.2812 32.7487 28.2812 33.2451V35.2344H11.7188V33.2451C11.7188 32.7487 11.4059 32.3061 10.938 32.1404C7.76469 31.017 5.2357 28.727 3.76359 25.8594H36.2364C34.7644 28.727 32.2353 31.017 29.062 32.1404Z" fill="#303030"/>
<path d="M12.1401 13.7974C12.5977 14.255 13.3397 14.2551 13.7974 13.7974C15.5467 12.0481 15.5467 9.20191 13.7974 7.45262C12.96 6.61519 12.9599 5.25988 13.7974 4.42238C14.255 3.96473 14.255 3.22277 13.7974 2.76512C13.3398 2.30746 12.5978 2.30746 12.1401 2.76512C10.3908 4.51441 10.3908 7.36059 12.1401 9.10988C12.9774 9.9473 12.9775 11.3026 12.1401 12.1401C11.6824 12.5978 11.6824 13.3397 12.1401 13.7974Z" fill="#303030"/>
<path d="M19.1713 13.7974C19.6289 14.255 20.371 14.2551 20.8286 13.7974C22.5779 12.0481 22.5779 9.20191 20.8286 7.45262C19.9913 6.61519 19.9912 5.25988 20.8286 4.42238C21.2863 3.96473 21.2863 3.22277 20.8286 2.76512C20.371 2.30746 19.629 2.30746 19.1713 2.76512C17.4221 4.51441 17.4221 7.36059 19.1713 9.10988C20.0087 9.9473 20.0088 11.3026 19.1713 12.1401C18.7137 12.5978 18.7137 13.3397 19.1713 13.7974Z" fill="#303030"/>
<path d="M26.2026 13.7974C26.6602 14.255 27.4022 14.2551 27.8599 13.7974C29.6092 12.0481 29.6092 9.20191 27.8599 7.45262C27.0226 6.61527 27.0224 5.25988 27.8599 4.42238C28.3175 3.96473 28.3175 3.22277 27.8599 2.76512C27.4023 2.30746 26.6603 2.30746 26.2026 2.76512C24.4533 4.51441 24.4533 7.36059 26.2026 9.10988C27.0399 9.94723 27.04 11.3027 26.2026 12.1401C25.7449 12.5978 25.7449 13.3397 26.2026 13.7974Z" fill="#303030"/>
</svg>

<svg width="40" height="40" fill="currentColor" xmlns="http://www.w3.org/2000/svg"><path d="M38.828 18.828H1.172C.525 18.828 0 19.353 0 20c0 6.152 3.735 11.697 9.375 14.05v2.356c0 .647.525 1.172 1.172 1.172h18.906c.647 0 1.172-.525 1.172-1.172V34.05C36.293 31.685 40 26.124 40 20c0-.647-.525-1.172-1.172-1.172Zm-1.225 2.344c-.074.8-.223 1.584-.44 2.344H2.837a12.79 12.79 0 0 1-.44-2.344h35.206ZM29.062 32.14c-.468.166-.78.609-.78 1.105v1.99H11.718v-1.99c0-.496-.313-.939-.781-1.105a12.912 12.912 0 0 1-7.174-6.28h32.472a12.912 12.912 0 0 1-7.174 6.28ZM12.14 13.797c.458.458 1.2.458 1.657 0a4.491 4.491 0 0 0 0-6.344 2.141 2.141 0 0 1 0-3.03 1.172 1.172 0 0 0-1.657-1.658 4.491 4.491 0 0 0 0 6.345 2.142 2.142 0 0 1 0 3.03 1.172 1.172 0 0 0 0 1.657ZM19.171 13.797c.458.458 1.2.458 1.658 0a4.491 4.491 0 0 0 0-6.344 2.142 2.142 0 0 1 0-3.03 1.172 1.172 0 1 0-1.658-1.658 4.492 4.492 0 0 0 0 6.345 2.141 2.141 0 0 1 0 3.03 1.172 1.172 0 0 0 0 1.657ZM26.203 13.797c.457.458 1.2.458 1.657 0a4.491 4.491 0 0 0 0-6.344 2.142 2.142 0 0 1 0-3.03 1.172 1.172 0 0 0-1.657-1.658 4.491 4.491 0 0 0 0 6.345 2.142 2.142 0 0 1 0 3.03 1.172 1.172 0 0 0 0 1.657Z" fill="#303030"/></svg>
